icon-svg/wall-impress-narrow-two.svg

<svg xmlns="http://www.w3.org/2000/svg" fill="#44739e" viewBox="0 0 24 24"><path d="M10.494 2.079 3.272 3.8l-.017 1.152a2.05 2.05 0 0 0-.33.113.25.25 0 0 0-.061.165L2.812 19.4a.243.243 0 0 0 .078.131.94.94 0 0 0 .287.06l.017.964 7.3 1.371 4.687-1.18V4.509Zm.773 1.666 3.1 1.537v.156l-2.067.434v.521l1.77-.313.018 13.064-1.754-.287.009.512 1.979.313v.173l-3.064.573zm-1.893.009-.026 16.605-5.182-.807.018-.165 1.979-.33V5.733l-1.945-.72a.3.3 0 0 1 .243-.287c.243-.052 4.913-.972 4.913-.972M17.846 5.9l-1.788.425v.938L17 7.078l-.017 11.7-.937-.147V19.7l1.8.339 3.342-.842V7.634Zm2.665 2.37-1.458.3v.365l1.247-.216.018 9.209-1.233-.2.009.347 1.4.217v.122l-2.161.4V7.078l2.187 1.085v.105z"/></svg>

<?xml version="1.0" encoding="UTF-8"?>
<svg width="24px" fill="#44739e" height="24px" viewBox="0 0 24 24" version="1.1" xmlns="http://www.w3.org/2000/svg" xmlns:xlink="http://www.w3.org/1999/xlink">
            <path d="M 10.494,2.079 3.272,3.8 3.255,4.952 A 2.046,2.046 0 0 0 2.925,5.065 0.249,0.249 0 0 0 2.864,5.23 L 2.812,19.4 a 0.243,0.243 0 0 0 0.078,0.131 0.944,0.944 0 0 0 0.287,0.06 l 0.017,0.964 7.3,1.371 4.687,-1.18 V 4.509 Z m 0.773,1.666 3.1,1.537 V 5.438 L 12.3,5.872 v 0.521 l 1.77,-0.313 0.018,13.064 -1.754,-0.287 0.009,0.512 1.979,0.313 v 0.173 l -3.064,0.573 z M 9.374,3.754 9.348,20.359 4.166,19.552 4.184,19.387 6.163,19.057 V 5.733 L 4.218,5.013 A 0.3,0.3 0 0 1 4.461,4.726 C 4.704,4.674 9.374,3.754 9.374,3.754 M 17.846,5.9 16.058,6.325 V 7.263 L 17,7.078 16.983,18.778 16.046,18.631 V 19.7 l 1.8,0.339 3.342,-0.842 V 7.634 Z m 2.665,2.37 -1.458,0.3 v 0.365 l 1.247,-0.216 0.018,9.209 -1.233,-0.2 0.009,0.347 1.4,0.217 v 0.122 l -2.161,0.4 V 7.078 l 2.187,1.085 v 0.105 z"/>

</svg>
